src/dsmComponents/Icons/download-12px.svg

<svg width="12" height="12" xmlns="http://www.w3.org/2000/svg" xmlns:xlink="http://www.w3.org/1999/xlink"><defs><path d="M4 0v2H2v8h8V2H8V0h2a2 2 0 012 2v8a2 2 0 01-2 2H2a2 2 0 01-2-2V2a2 2 0 012-2h2zm3 0v4h2L6 8 3 4h2V0h2z" id="download-12px_svg__a"/></defs><use fill="#737373" xlink:href="#download-12px_svg__a" fill-rule="evenodd"/></svg>

<?xml version="1.0" encoding="UTF-8"?>
<svg width="12px" height="12px" viewBox="0 0 12 12" version="1.1" xmlns="http://www.w3.org/2000/svg" xmlns:xlink="http://www.w3.org/1999/xlink">
    <!-- Generator: Sketch 59.1 (86144) - https://sketch.com -->
    <title>download-12px</title>
    <desc>Created with Sketch.</desc>
    <defs>
        <path d="M4,0 L4,2 L2,2 L2,10 L10,10 L10,2 L8,2 L8,0 L10,0 C11.1045695,0 12,0.8954305 12,2 L12,2 L12,10 C12,11.1045695 11.1045695,12 10,12 L10,12 L2,12 C0.8954305,12 0,11.1045695 0,10 L0,10 L0,2 C0,0.8954305 0.8954305,0 2,0 L2,0 L4,0 Z M7,0 L7,4 L9,4 L6,8 L3,4 L5,4 L5,0 L7,0 Z" id="path-1"></path>
    </defs>
    <g id="Final" stroke="none" stroke-width="1" fill="none" fill-rule="evenodd">
        <g id="All-Nucleo-Icons" transform="translate(-174.000000, -2715.000000)">
            <g id="Solo/Nucleo/12px/download" transform="translate(168.000000, 2709.000000)">
                <g id="system-update" transform="translate(6.000000, 6.000000)">
                    <g id="Colour/Default-Colour">
                        <mask id="mask-2" fill="white">
                            <use xlink:href="#path-1"></use>
                        </mask>
                        <use id="Mask" fill="#000000" fill-rule="nonzero" xlink:href="#path-1"></use>
                        <g id="colour/neutral/chia" mask="url(#mask-2)" fill="#737373">
                            <g transform="translate(-18.000000, -18.000000)" id="Colour">
                                <rect x="0" y="0" width="48" height="48"></rect>
                            </g>
                        </g>
                    </g>
                </g>
            </g>
        </g>
    </g>
</svg>
